svg/color/boot.svg

<?xml version="1.0" encoding="UTF-8" ?>
<!DOCTYPE svg PUBLIC "-//W3C//DTD SVG 1.1//EN" "http://www.w3.org/Graphics/SVG/1.1/DTD/svg11.dtd">
<svg width="250pt" height="250pt" viewBox="0 0 250 250" version="1.1" xmlns="http://www.w3.org/2000/svg">
<g id="#fafefaff">
<path fill="#fafefa" opacity="1.00" d=" M 0.00 0.00 L 115.56 0.00 C 97.68 4.39 78.81 7.65 62.96 17.93 C 36.62 33.43 15.75 58.47 6.78 87.84 C 2.77 96.22 4.70 106.74 0.00 114.60 L 0.00 0.00 Z" />
<path fill="#fafefa" opacity="1.00" d=" M 136.38 0.00 L 250.00 0.00 L 250.00 111.57 C 244.79 74.43 223.83 39.15 191.37 19.61 C 174.91 8.45 155.02 4.81 136.38 0.00 Z" />
<path fill="#fafefa" opacity="1.00" d=" M 0.00 136.40 C 4.07 141.42 2.19 148.79 4.38 154.62 C 15.33 205.00 60.74 243.64 111.42 250.00 L 0.00 250.00 L 0.00 136.40 Z" />
<path fill="#fafefa" opacity="1.00" d=" M 162.79 244.71 C 209.42 230.76 244.03 187.55 250.00 139.58 L 250.00 250.00 L 139.43 250.00 C 147.15 247.95 155.23 247.46 162.79 244.71 Z" />
</g>
<g id="#12b712ff">
<path fill="#12b712" opacity="1.00" d=" M 115.56 0.00 L 136.38 0.00 C 155.02 4.81 174.91 8.45 191.37 19.61 C 223.83 39.15 244.79 74.43 250.00 111.57 L 250.00 139.58 C 244.03 187.55 209.42 230.76 162.79 244.71 C 155.23 247.46 147.15 247.95 139.43 250.00 L 111.42 250.00 C 60.74 243.64 15.33 205.00 4.38 154.62 C 2.19 148.79 4.07 141.42 0.00 136.40 L 0.00 114.60 C 4.70 106.74 2.77 96.22 6.78 87.84 C 15.75 58.47 36.62 33.43 62.96 17.93 C 78.81 7.65 97.68 4.39 115.56 0.00 Z" />
</g>
</svg>

<?xml version="1.0" encoding="utf-8"?>
<!-- Generator: Adobe Illustrator 26.0.3, SVG Export Plug-In . SVG Version: 6.00 Build 0)  -->
<svg version="1.1" id="Layer_1" xmlns="http://www.w3.org/2000/svg" xmlns:xlink="http://www.w3.org/1999/xlink" x="0px" y="0px"
	 viewBox="0 0 250 250" style="enable-background:new 0 0 250 250;" xml:space="preserve">
<style type="text/css">
	.st0{fill:#12B712;}
</style>
<g id="_x23_12b712ff">
	<path class="st0" d="M115.6,0h20.8c18.6,4.8,38.5,8.4,55,19.6c32.5,19.5,53.4,54.8,58.6,92v28c-6,48-40.6,91.2-87.2,105.1
		c-7.6,2.8-15.6,3.2-23.4,5.3h-28c-50.7-6.4-96.1-45-107-95.4c-2.2-5.8-0.3-13.2-4.4-18.2v-21.8c4.7-7.9,2.8-18.4,6.8-26.8
		c9-29.4,29.8-54.4,56.2-69.9C78.8,7.7,97.7,4.4,115.6,0z"/>
</g>
</svg>
